X: 28782
T: My Love Is In America
R: reel
M: 4/4
K: Dmixolydian
|:"D"FEFG ABcB|Add^c AddA|FEFG ABcA|"C"GBAG FDDE|
"D"FEFG ABcB|Add^c defg|afge fdAF|1 "C"GBAG "D"FDDE:|2 "C"GBAG "D"FDDe||
|:"D"fdeg fde^c|Add^c Adde|fdeg fdAF|"C"GBAG FDDe|
"D"fdeg fde^c|Add^c defg|afge fdAF|1 "C"GBAG "D"FDDe:|2 "C"GBAG "D"FDDE||

